packages/core/src/svgs/tokens/mono/FACTR.svg

<svg width="24" height="24" viewBox="0 0 24 24" fill="none" xmlns="http://www.w3.org/2000/svg">
<path d="M20.765 2.0022L13.0326 2.66878C12.835 2.68609 12.6456 2.7549 12.4831 2.86836C12.3204 2.98182 12.1905 3.13596 12.106 3.31537C12.0217 3.49605 11.986 3.6956 12.0023 3.89433C12.0188 4.09306 12.0866 4.28409 12.1994 4.44855L16.6122 10.861C16.7264 11.022 16.8807 11.1503 17.0597 11.2333C17.2387 11.3164 17.4364 11.3512 17.633 11.3344C17.8296 11.3175 18.0186 11.2497 18.1808 11.1374C18.3432 11.0251 18.4733 10.8725 18.5586 10.6944L21.8848 3.64865C21.9506 3.51301 21.9891 3.3657 21.9979 3.21517C22.0066 3.06466 21.9856 2.91389 21.9362 2.77146C21.8867 2.62905 21.8096 2.49781 21.7092 2.38527C21.6089 2.27271 21.4873 2.18104 21.3515 2.11552C21.1691 2.02825 20.9664 1.99142 20.765 2.00887V2.0022ZM2.00073 3.23538L2.66731 10.9677C2.68462 11.1652 2.75343 11.3547 2.86689 11.5174C2.98035 11.6799 3.13449 11.8099 3.3139 11.8942C3.49418 11.9788 3.69333 12.0154 3.8919 12.0001C4.09048 11.985 4.28176 11.9186 4.44708 11.8076L10.8596 7.38149C11.0173 7.26666 11.1428 7.113 11.2238 6.93543C11.3047 6.75786 11.3385 6.56236 11.3218 6.36793C11.305 6.17348 11.2383 5.98665 11.1282 5.82556C11.0179 5.66446 10.868 5.53456 10.6929 5.44842L3.64719 2.11552C3.51154 2.0497 3.36423 2.01127 3.21372 2.00245C3.06319 1.99363 2.91242 2.0146 2.77001 2.06414C2.6276 2.11366 2.49636 2.1908 2.3838 2.29112C2.27124 2.39144 2.17958 2.51299 2.11406 2.64879C2.02678 2.8313 1.98995 3.03383 2.0074 3.23538H2.00073ZM3.22725 21.9996L10.9596 21.3529C11.159 21.3361 11.3503 21.2669 11.5142 21.1521C11.6782 21.0373 11.8087 20.8813 11.8928 20.6997C11.9777 20.518 12.0137 20.3174 11.9973 20.1173C11.981 19.9175 11.9127 19.7254 11.7995 19.5599L7.37336 13.1407C7.20053 12.9005 6.9406 12.7375 6.64913 12.6864C6.35766 12.6353 6.05777 12.7004 5.81356 12.8674C5.65358 12.9808 5.52027 13.1341 5.43362 13.3074L2.10738 20.373C1.97955 20.6473 1.96527 20.961 2.06766 21.2456C2.17005 21.5302 2.3808 21.7629 2.65398 21.8929C2.83396 21.9729 3.03394 22.0129 3.22725 21.9929V21.9996ZM21.9981 20.7865L21.3448 13.0408C21.3322 12.8923 21.2905 12.7478 21.2221 12.6156C21.1535 12.4834 21.0597 12.3658 20.9457 12.2698C20.8319 12.1739 20.7001 12.1014 20.5581 12.0563C20.4161 12.0113 20.2668 11.9947 20.1183 12.0076C19.9184 12.0208 19.7184 12.0875 19.5583 12.2075L13.1393 16.6337C12.9783 16.7478 12.85 16.9021 12.7669 17.0811C12.6839 17.2602 12.649 17.4579 12.666 17.6544C12.6828 17.851 12.7507 18.04 12.8629 18.2022C12.9752 18.3646 13.1279 18.4948 13.3058 18.58L20.3716 21.8929C20.5514 21.9761 20.7497 22.0115 20.9473 21.9953C21.1447 21.9791 21.3346 21.9119 21.4983 21.8005C21.6623 21.689 21.7943 21.5371 21.8819 21.3593C21.9695 21.1815 22.0096 20.9841 21.9981 20.7865Z" fill="white"/>
</svg>

<svg xmlns="http://www.w3.org/2000/svg" width="24" height="24" fill="none" viewBox="0 0 24 24">
    <path fill="#fff" d="m20.765 2.002-7.732.667a1.13 1.13 0 0 0-1.03 1.225c.016.2.084.39.196.555l4.413 6.412a1.133 1.133 0 0 0 1.947-.167l3.326-7.045a1.147 1.147 0 0 0-.534-1.533 1.13 1.13 0 0 0-.586-.107zM2.001 3.235l.666 7.733A1.134 1.134 0 0 0 3.892 12c.198-.015.39-.081.555-.192L10.86 7.38a1.134 1.134 0 0 0-.167-1.933L3.647 2.116a1.147 1.147 0 0 0-1.533.533 1.13 1.13 0 0 0-.107.586zM3.227 22l7.733-.647a1.13 1.13 0 0 0 .933-.653 1.15 1.15 0 0 0-.094-1.14l-4.426-6.42a1.133 1.133 0 0 0-1.94.167l-3.326 7.066a1.147 1.147 0 0 0 .547 1.52c.18.08.38.12.573.1zm18.771-1.213-.653-7.746a1.134 1.134 0 0 0-1.227-1.033c-.2.013-.4.08-.56.2l-6.419 4.426a1.133 1.133 0 0 0 .167 1.946l7.066 3.313a1.148 1.148 0 0 0 1.626-1.107"/>
</svg>
